ufans-frontend-package/public/assets/images/new-home/icon/search.svg

<svg width="100" height="98" viewBox="0 0 100 98" fill="none" xmlns="http://www.w3.org/2000/svg">
<g clip-path="url(#clip0_1350_2)">
<path d="M40.6807 0H40.6937V0.00569666C51.9234 0.0089519 62.092 4.56384 69.4504 11.9239C76.7967 19.2734 81.3475 29.433 81.3548 40.6538H81.3605V40.6807V40.7132H81.3548C81.3508 45.2356 80.6086 49.5878 79.2438 53.6463C79.0151 54.3274 78.7759 54.9817 78.5301 55.6067V55.6124C77.3533 58.591 75.8323 61.4068 74.0159 64.0004L97.6831 85.2725L97.6977 85.2855L97.8255 85.4043L97.8345 85.4133C99.1707 86.6853 99.8983 88.3886 99.9902 90.1171C100.08 91.8261 99.5483 93.5742 98.3797 94.9764L98.3708 94.9894L98.2283 95.1546L98.1999 95.1831L98.081 95.3133L98.068 95.3304C96.7944 96.6666 95.0944 97.3926 93.3642 97.4837C91.6576 97.574 89.908 97.0442 88.505 95.874L88.4927 95.865L88.3267 95.7226L88.3031 95.7031L64.0964 73.9467C63.3802 74.4513 62.6494 74.9306 61.9097 75.3831C60.9063 75.9975 59.867 76.5761 58.8066 77.1043C53.3549 79.8241 47.1944 81.354 40.6815 81.354V81.3597H40.6685V81.354C29.4387 81.3508 19.2685 76.7959 11.9101 69.4358C4.5614 62.0863 0.0130209 51.9251 0.00569666 40.7075H0V40.6807V40.6677H0.00569666C0.0089519 29.4379 4.56384 19.2677 11.9239 11.9093C19.2734 4.56384 29.433 0.0130209 40.6538 0.00569666V0H40.6807ZM40.6937 9.1228V9.12849H40.6807H40.6538V9.1228C31.9575 9.12849 24.0749 12.6629 18.3685 18.3668C12.6629 24.0708 9.12524 31.9615 9.1228 40.6685H9.12849V40.6815V40.7083H9.1228C9.12849 49.4047 12.6604 57.2832 18.3668 62.9912C24.0708 68.6977 31.9615 72.2353 40.6677 72.2369V72.2312H40.6807H40.7075V72.2369C49.4039 72.2312 57.2832 68.6985 62.9912 62.9929C68.6969 57.2889 72.2345 49.4006 72.2361 40.6945H72.2312V40.6815V40.6546H72.2361C72.2312 31.9583 68.696 24.0757 62.9929 18.3693C57.2889 12.6629 49.4006 9.12524 40.6937 9.1228Z" fill="#6661E7"/>
</g>
<defs>
<clipPath id="clip0_1350_2">
<rect width="100" height="97.4935" fill="white"/>
</clipPath>
</defs>
</svg>

<svg xmlns="http://www.w3.org/2000/svg" xmlns:xlink="http://www.w3.org/1999/xlink" width="100" height="97.494" viewBox="0 0 100 97.494">
  <defs>
    <clipPath id="clip-path">
      <rect id="Rectangle_1" data-name="Rectangle 1" width="100" height="97.493" fill="#e44499"/>
    </clipPath>
  </defs>
  <g id="search" clip-path="url(#clip-path)">
    <path id="Path_9" data-name="Path 9" d="M40.681,0h.013V.006A40.668,40.668,0,0,1,81.355,40.654h.006v.059h-.006a40.632,40.632,0,0,1-2.111,12.933q-.343,1.022-.714,1.96v.006A40.7,40.7,0,0,1,74.016,64L97.683,85.272l.015.013.128.119.009.009a7.028,7.028,0,0,1,.545,9.563l-.009.013-.142.165-.028.028-.119.13-.013.017a7.032,7.032,0,0,1-9.563.544l-.012-.009-.166-.142L88.3,95.7,64.1,73.947q-1.074.757-2.187,1.436c-1,.614-2.043,1.193-3.1,1.721a40.5,40.5,0,0,1-18.125,4.25v.006h-.013v-.006A40.668,40.668,0,0,1,.006,40.708H0v-.04H.006A40.666,40.666,0,0,1,40.654.006V0Zm.013,9.123v.006h-.04V9.123A31.564,31.564,0,0,0,9.123,40.668h.006v.04H9.123A31.564,31.564,0,0,0,40.668,72.237v-.006h.04v.006A31.563,31.563,0,0,0,72.236,40.694h0v-.04h0A31.564,31.564,0,0,0,40.694,9.123Z" fill="#e44499"/>
  </g>
</svg>
